X:14013
T:Nantwich Fair
R:Jig
C:Trad.
O:England, Cheshire
Z:Paul Hardy's Session Tunebook 2015 (see www.paulhardy.net). Creative Commons cc by-nc-sa licenced.
M:6/8
L:1/8
Q:3/8=120
K:D
d|"D"d2A A2d|"A"e2A A2e|"D"fgf efd|"A"e2 AA2A|"G"B2B BAG|"D"A2A AGF|"G"GAG "D"FED|"A"E3 E2:|
|:A|"A"A2E EFG|"D"F2D D2d|"D7"d2A AB=c|"G"B3 B2f|"Em"g2f efd|"A"cde "D"A2A|"G"Bcd "A7"ecA|"D"d3 d2:|

